X: 15430
T: Glen Cottage, The
R: polka
M: 2/4
K: Adorian
V:1
EA, B,D|E/F/E/D/ B,D|EA, B,A,|G,>A, B,D|
V:2
eA Bd|e/f/e/d/ Bd|eA BA|G>A Bd|
V:1
EA, B,D|E/F/E/D/ B,D|EA E/F/E/D/|B,A, A, B,/D/:|
V:2
eA Bd|e/f/e/d/ Bd|ea e/f/e/d/|BA A2:|
V:1
|:E2 EF/G/|AE FE|D2 DE/F/|GE FD|
V:2
|:e2 ef/g/|ae fe|d2 de/f/|ge fd|
V:1
E2 EF/G/|AE FE|EA E/F/E/D/|B,A, A,2:|
V:2
e2 ef/g/|ae fe|ea e/f/e/d/|BA A2:|

